X:5127
T:Father O'Flynn
T:Rollicking Irishman
R:Jig
Z:Added by Alf Warnock
M:6/8
L:1/8
K:D
|:dAF DFA|ded cBA|dcd efg|fed cBA|
dAF DFA|ded cBA|dcd efg|fdd d2A:|
|:fgf fga|efe e2c|dcd Bed|cAA A2A|
BGB Bcd|AFD DFA|dcd efg|fdd d2z:|
